;FLAVOR:Marlin
;TIME:7801
;Filament used: 6.9262m
;Layer height: 0.22
;MINX:25.936
;MINY:25.925
;MINZ:0.144
;MAXX:209.064
;MAXY:209.096
;MAXZ:4.044
;Generated with Cura_SteamEngine master
M140 S60
M105
M190 S60
M104 S200
M105
M109 S200
M82 ;absolute extrusion mode
; Ender 3 Custom Start G-code
G92 E0 ; Reset Extruder
G28 ; Home all axes
G1 Z2.0 F3000 ; Move Z Axis up little to prevent scratching of Heat Bed
G1 X0.1 Y20 Z0.3 F5000.0 ; Move to start position
G1 X0.1 Y200.0 Z0.3 F1500.0 E15 ; Draw the first line
G1 X0.4 Y200.0 Z0.3 F5000.0 ; Move to side a little
G1 X0.4 Y20 Z0.3 F1500.0 E30 ; Draw the second line
G92 E0 ; Reset Extruder
G1 Z2.0 F3000 ; Move Z Axis up little to prevent scratching of Heat Bed
G1 X5 Y20 Z0.3 F5000.0 ; Move over to prevent blob squish
G92 E0
G92 E0
G1 F2700 E-5
;LAYER_COUNT:14
;LAYER:-5
M107
G0 F9000 X31.223 Y41.707 Z0.144
;TYPE:SUPPORT-INTERFACE
G1 F2700 E0
G1 F1125 X41.705 Y31.226 E0.70995
G1 X42.401 Y30.58 E0.75543
G1 X42.54 Y30.461 E0.76419
G1 X43.231 Y29.907 E0.80661
G1 X43.37 Y29.803 E0.81492
G1 X44.085 Y29.311 E0.85649
G1 X44.269 Y29.194 E0.86693
G1 X45.025 Y28.751 E0.9089
G1 X45.167 Y28.674 E0.91664
G1 X45.999 Y28.265 E0.96104
G1 X46.112 Y28.215 E0.96696
G1 X46.962 Y27.872 E1.01086
G1 X47.135 Y27.81 E1.01966
G1 X47.973 Y27.541 E1.06181
G1 X48.137 Y27.495 E1.06997
G1 X49.009 Y27.283 E1.11295
G1 X49.171 Y27.25 E1.12087
G1 X50.064 Y27.102 E1.16422
G1 X50.241 Y27.079 E1.17277
G1 X51.135 Y26.996 E1.21577
G1 X51.277 Y26.989 E1.22258
G1 X52.018 Y26.968 E1.25809
G1 X52.179 Y26.969 E1.2658
G1 X53.18 Y27.005 E1.31377
G1 X53.303 Y27.014 E1.31968
G1 X54.22 Y27.116 E1.36387
G1 X54.395 Y27.141 E1.37234
G1 X55.284 Y27.305 E1.41563
G1 X55.407 Y27.333 E1.42167
G1 X56.301 Y27.567 E1.46593
G1 X56.464 Y27.616 E1.47409
G1 X57.306 Y27.902 E1.51668
G1 X57.472 Y27.966 E1.5252
G1 X58.275 Y28.307 E1.56698
G1 X58.464 Y28.395 E1.57697
G1 X59.258 Y28.803 E1.61972
G1 X59.375 Y28.87 E1.62618
G1 X60.154 Y29.344 E1.66985
G1 X60.305 Y29.444 E1.67853
G1 X61.019 Y29.955 E1.72058
G1 X61.167 Y30.068 E1.7295
G1 X61.859 Y30.645 E1.77265
G1 X61.967 Y30.741 E1.77957
G1 X62.479 Y31.223 E1.81325
G1 X203.738 Y172.482 E11.38117
G1 X204.42 Y173.215 E11.42912
G1 X204.539 Y173.354 E11.43789
G1 X205.093 Y174.045 E11.48031
G1 X205.197 Y174.184 E11.48862
G1 X205.689 Y174.899 E11.53019
G1 X205.806 Y175.083 E11.54063
G1 X206.249 Y175.839 E11.5826
G1 X206.326 Y175.981 E11.59034
G1 X206.729 Y176.8 E11.63405
G1 X206.785 Y176.926 E11.64066
G1 X207.127 Y177.771 E11.68432
G1 X207.186 Y177.936 E11.69271
G1 X207.458 Y178.783 E11.73532
G1 X207.504 Y178.945 E11.74338
G1 X207.716 Y179.819 E11.78646
G1 X207.749 Y179.977 E11.79419
G1 X207.897 Y180.869 E11.83749
G1 X207.921 Y181.055 E11.84648
G1 X208.003 Y181.939 E11.889
G1 X208.011 Y182.091 E11.89629
G1 X208.032 Y182.824 E11.93141
G1 X208.032 Y182.976 E11.93869
G1 X207.996 Y183.982 E11.9869
G1 X207.986 Y184.117 E11.99338
G1 X207.884 Y185.034 E12.03757
G1 X207.859 Y185.209 E12.04604
G1 X207.697 Y186.087 E12.0888
G1 X207.667 Y186.221 E12.09538
G1 X207.436 Y187.106 E12.13919
G1 X207.384 Y187.278 E12.14779
G1 X207.098 Y188.12 E12.19038
G1 X207.034 Y188.286 E12.1989
G1 X206.693 Y189.089 E12.24069
G1 X206.612 Y189.264 E12.24992
G1 X206.197 Y190.072 E12.29343
G1 X206.13 Y190.189 E12.29988
G1 X205.656 Y190.968 E12.34356
G1 X205.556 Y191.119 E12.35223
G1 X205.045 Y191.833 E12.39428
G1 X204.932 Y191.981 E12.4032
G1 X204.355 Y192.673 E12.44636
G1 X204.259 Y192.781 E12.45328
G1 X203.777 Y193.293 E12.48696
G1 X193.295 Y203.774 E13.1969
G1 X192.61 Y204.41 E13.24167
G1 X192.462 Y204.537 E13.25101
G1 X191.769 Y205.093 E13.29356
G1 X191.63 Y205.197 E13.30188
G1 X190.915 Y205.689 E13.34345
G1 X190.731 Y205.806 E13.35389
G1 X189.975 Y206.249 E13.39586
G1 X189.833 Y206.326 E13.40359
G1 X189.005 Y206.733 E13.44778
G1 X188.888 Y206.785 E13.45391
G1 X188.033 Y207.13 E13.49807
G1 X187.87 Y207.188 E13.50636
G1 X187.027 Y207.459 E13.54877
G1 X186.863 Y207.505 E13.55693
G1 X185.991 Y207.717 E13.59991
G1 X185.829 Y207.75 E13.60782
G1 X184.936 Y207.898 E13.65118
G1 X184.759 Y207.921 E13.65973
G1 X183.865 Y208.004 E13.70273
G1 X183.723 Y208.011 E13.70954
G1 X182.982 Y208.032 E13.74504
G1 X182.821 Y208.031 E13.75275
G1 X181.82 Y207.995 E13.80073
G1 X181.697 Y207.986 E13.80663
G1 X180.78 Y207.884 E13.85082
G1 X180.605 Y207.859 E13.85929
G1 X179.716 Y207.695 E13.90259
G1 X179.593 Y207.667 E13.90863
G1 X178.699 Y207.433 E13.95289
G1 X178.536 Y207.384 E13.96104
G1 X177.694 Y207.098 E14.00363
G1 X177.528 Y207.034 E14.01215
G1 X176.725 Y206.693 E14.05394
G1 X176.536 Y206.605 E14.06392
G1 X175.742 Y206.197 E14.10668
G1 X175.625 Y206.13 E14.11313
G1 X174.846 Y205.656 E14.15681
G1 X174.695 Y205.556 E14.16548
G1 X173.981 Y205.045 E14.20753
G1 X173.833 Y204.932 E14.21645
G1 X173.141 Y204.355 E14.2596
G1 X173.033 Y204.259 E14.26653
G1 X172.521 Y203.777 E14.3002
G1 X31.222 Y62.477 E23.87087
G1 X30.578 Y61.783 E23.91621
G1 X30.461 Y61.646 E23.92484
G1 X29.907 Y60.955 E23.96726
G1 X29.803 Y60.816 E23.97558
G1 X29.311 Y60.101 E24.01715
G1 X29.194 Y59.917 E24.02759
G1 X28.751 Y59.161 E24.06956
G1 X28.674 Y59.019 E24.07729
G1 X28.265 Y58.187 E24.12169
G1 X28.215 Y58.074 E24.12761
G1 X27.867 Y57.213 E24.17209
G1 X27.81 Y57.052 E24.18027
G1 X27.538 Y56.204 E24.22292
G1 X27.492 Y56.04 E24.23108
G1 X27.281 Y55.168 E24.27405
G1 X27.248 Y55.007 E24.28192
G1 X27.101 Y54.117 E24.32513
G1 X27.079 Y53.945 E24.33343
G1 X26.996 Y53.046 E24.37667
G1 X26.989 Y52.909 E24.38324
G1 X26.968 Y52.176 E24.41836
G1 X26.968 Y52.024 E24.42564
G1 X27.004 Y51.018 E24.47386
G1 X27.014 Y50.883 E24.48034
G1 X27.116 Y49.966 E24.52453
G1 X27.141 Y49.791 E24.533
G1 X27.303 Y48.913 E24.57576
G1 X27.333 Y48.779 E24.58233
G1 X27.564 Y47.894 E24.62614
G1 X27.616 Y47.722 E24.63475
G1 X27.902 Y46.88 E24.67734
G1 X27.966 Y46.714 E24.68586
G1 X28.307 Y45.911 E24.72764
G1 X28.388 Y45.736 E24.73688
G1 X28.803 Y44.928 E24.78038
G1 X28.87 Y44.811 E24.78684
G1 X29.344 Y44.032 E24.83051
G1 X29.444 Y43.881 E24.83919
G1 X29.955 Y43.167 E24.88124
G1 X30.068 Y43.019 E24.89016
G1 X30.645 Y42.327 E24.93331
G1 X30.741 Y42.219 E24.94023
G1 X31.223 Y41.707 E24.97391
G0 F9000 X32 Y40.93
G1 F1125 X32 Y63.255 E26.04316
G0 F9000 X33.6 Y64.855
G1 F1125 X33.6 Y39.33 E27.26567
G0 F9000 X35.2 Y37.73
G1 F1125 X35.2 Y66.455 E28.64144
G0 F9000 X36.8 Y68.055
G1 F1125 X36.8 Y36.13 E30.17047
G0 F9000 X38.4 Y34.53
G1 F1125 X38.4 Y69.655 E31.85277
G0 F9000 X40 Y71.255
G1 F1125 X40 Y32.93 E33.68833
G0 F9000 X41.6 Y31.33
G1 F1125 X41.6 Y72.855 E35.67715
G0 F9000 X43.2 Y74.455
G1 F1125 X43.2 Y29.931 E37.80961
G0 F9000 X44.8 Y28.882
G1 F1125 X44.8 Y76.055 E40.06895
G0 F9000 X46.4 Y77.655
G1 F1125 X46.4 Y28.098 E42.44246
G0 F9000 X48 Y27.533
G1 F1125 X48 Y79.255 E44.91966
G0 F9000 X49.6 Y80.855
G1 F1125 X49.6 Y27.178 E47.4905
G0 F9000 X51.2 Y26.992
G1 F1125 X51.2 Y82.455 E50.14688
G0 F9000 X52.8 Y84.055
G1 F1125 X52.8 Y26.992 E52.87989
G0 F9000 X54.4 Y27.142
G1 F1125 X54.4 Y85.655 E55.68234
G0 F9000 X56 Y87.255
G1 F1125 X56 Y27.489 E58.54481
G0 F9000 X57.6 Y28.021
G1 F1125 X57.6 Y88.855 E61.45843
G0 F9000 X59.2 Y90.455
G1 F1125 X59.2 Y28.774 E64.41262
G0 F9000 X60.8 Y29.799
G1 F1125 X60.8 Y92.055 E67.39434
G0 F9000 X62.4 Y93.655
G1 F1125 X62.4 Y31.149 E70.38804
G0 F9000 X64 Y32.744
G1 F1125 X64 Y95.255 E73.38198
G0 F9000 X65.6 Y96.855
G1 F1125 X65.6 Y34.344 E76.37592
G0 F9000 X67.2 Y35.944
G1 F1125 X67.2 Y98.455 E79.36986
G0 F9000 X68.8 Y100.055
G1 F1125 X68.8 Y37.544 E82.3638
G0 F9000 X70.4 Y39.144
G1 F1125 X70.4 Y101.655 E85.35774
G0 F9000 X72 Y103.255
G1 F1125 X72 Y40.744 E88.35168
G0 F9000 X73.6 Y42.344
G1 F1125 X73.6 Y104.855 E91.34562
G0 F9000 X75.2 Y106.455
G1 F1125 X75.2 Y43.944 E94.33956
G0 F9000 X76.8 Y45.544
G1 F1125 X76.8 Y108.055 E97.33349
G0 F9000 X78.4 Y109.655
G1 F1125 X78.4 Y47.144 E100.32743
G0 F9000 X80 Y48.744
G1 F1125 X80 Y111.255 E103.32137
G0 F9000 X81.6 Y112.855
G1 F1125 X81.6 Y50.344 E106.31531
G0 F9000 X83.2 Y51.944
G1 F1125 X83.2 Y114.455 E109.30925
G0 F9000 X84.8 Y116.055
G1 F1125 X84.8 Y53.544 E112.30319
G0 F9000 X86.4 Y55.144
G1 F1125 X86.4 Y117.655 E115.29713
G0 F9000 X88 Y119.255
G1 F1125 X88 Y56.744 E118.29107
G0 F9000 X89.6 Y58.344
G1 F1125 X89.6 Y120.855 E121.28501
G0 F9000 X91.2 Y122.455
G1 F1125 X91.2 Y59.944 E124.27895
G0 F9000 X92.8 Y61.544
G1 F1125 X92.8 Y124.055 E127.27288
G0 F9000 X94.4 Y125.655
G1 F1125 X94.4 Y63.144 E130.26682
G0 F9000 X96 Y64.744
G1 F1125 X96 Y127.255 E133.26076
G0 F9000 X97.6 Y128.855
G1 F1125 X97.6 Y66.344 E136.2547
G0 F9000 X99.2 Y67.944
G1 F1125 X99.2 Y130.455 E139.24864
G0 F9000 X100.8 Y132.055
G1 F1125 X100.8 Y69.544 E142.24258
G0 F9000 X102.4 Y71.144
G1 F1125 X102.4 Y133.655 E145.23652
G0 F9000 X104 Y135.255
G1 F1125 X104 Y72.744 E148.23046
G0 F9000 X105.6 Y74.344
G1 F1125 X105.6 Y136.855 E151.2244
G0 F9000 X107.2 Y138.455
G1 F1125 X107.2 Y75.944 E154.21834
G0 F9000 X108.8 Y77.544
G1 F1125 X108.8 Y140.055 E157.21227
G0 F9000 X110.4 Y141.655
G1 F1125 X110.4 Y79.144 E160.20621
G0 F9000 X112 Y80.744
G1 F1125 X112 Y143.255 E163.20015
G0 F9000 X113.6 Y144.855
G1 F1125 X113.6 Y82.344 E166.19409
G0 F9000 X115.2 Y83.944
G1 F1125 X115.2 Y146.455 E169.18803
G0 F9000 X116.8 Y148.055
G1 F1125 X116.8 Y85.544 E172.18197
G0 F9000 X118.4 Y87.144
G1 F1125 X118.4 Y149.655 E175.17591
G0 F9000 X120 Y151.255
G1 F1125 X120 Y88.744 E178.16985
G0 F9000 X121.6 Y90.344
G1 F1125 X121.6 Y152.855 E181.16379
G0 F9000 X123.2 Y154.455
G1 F1125 X123.2 Y91.944 E184.15773
G0 F9000 X124.8 Y93.544
G1 F1125 X124.8 Y156.055 E187.15166
G0 F9000 X126.4 Y157.655
G1 F1125 X126.4 Y95.144 E190.1456
G0 F9000 X128 Y96.744
G1 F1125 X128 Y159.255 E193.13954
G0 F9000 X129.6 Y160.855
G1 F1125 X129.6 Y98.344 E196.13348
G0 F9000 X131.2 Y99.944
G1 F1125 X131.2 Y162.455 E199.12742
G0 F9000 X132.8 Y164.055
G1 F1125 X132.8 Y101.544 E202.12136
G0 F9000 X134.4 Y103.144
G1 F1125 X134.4 Y165.655 E205.1153
G0 F9000 X136 Y167.255
G1 F1125 X136 Y104.744 E208.10924
G0 F9000 X137.6 Y106.344
G1 F1125 X137.6 Y168.855 E211.10318
G0 F9000 X139.2 Y170.455
G1 F1125 X139.2 Y107.944 E214.09712
G0 F9000 X140.8 Y109.544
G1 F1125 X140.8 Y172.055 E217.09105
G0 F9000 X142.4 Y173.655
G1 F1125 X142.4 Y111.144 E220.08499
G0 F9000 X144 Y112.744
G1 F1125 X144 Y175.255 E223.07893
G0 F9000 X145.6 Y176.855
G1 F1125 X145.6 Y114.344 E226.07287
G0 F9000 X147.2 Y115.944
G1 F1125 X147.2 Y178.455 E229.06681
G0 F9000 X148.8 Y180.055
G1 F1125 X148.8 Y117.544 E232.06075
G0 F9000 X150.4 Y119.144
G1 F1125 X150.4 Y181.655 E235.05469
G0 F9000 X152 Y183.255
G1 F1125 X152 Y120.744 E238.04863
G0 F9000 X153.6 Y122.344
G1 F1125 X153.6 Y184.855 E241.04257
G0 F9000 X155.2 Y186.455
G1 F1125 X155.2 Y123.944 E244.03651
G0 F9000 X156.8 Y125.544
G1 F1125 X156.8 Y188.055 E247.03044
G0 F9000 X158.4 Y189.655
G1 F1125 X158.4 Y127.144 E250.02438
G0 F9000 X160 Y128.744
G1 F1125 X160 Y191.255 E253.01832
G0 F9000 X161.6 Y192.855
G1 F1125 X161.6 Y130.344 E256.01226
G0 F9000 X163.2 Y131.944
G1 F1125 X163.2 Y194.455 E259.0062
G0 F9000 X164.8 Y196.055
G1 F1125 X164.8 Y133.544 E262.00014
G0 F9000 X166.4 Y135.144
G1 F1125 X166.4 Y197.655 E264.99408
G0 F9000 X168 Y199.255
G1 F1125 X168 Y136.744 E267.98802
G0 F9000 X169.6 Y138.344
G1 F1125 X169.6 Y200.855 E270.98196
G0 F9000 X171.2 Y202.455
G1 F1125 X171.2 Y139.944 E273.9759
G0 F9000 X172.8 Y141.544
G1 F1125 X172.8 Y204.039 E276.96907
G0 F9000 X174.4 Y205.344
G1 F1125 X174.4 Y143.144 E279.94811
G0 F9000 X176 Y144.744
G1 F1125 X176 Y206.329 E282.8977
G0 F9000 X177.6 Y207.061
G1 F1125 X177.6 Y146.344 E285.80572
G0 F9000 X179.2 Y147.944
G1 F1125 X179.2 Y207.564 E288.66119
G0 F9000 X180.8 Y207.886
G1 F1125 X180.8 Y149.544 E291.45546
G0 F9000 X182.4 Y151.144
G1 F1125 X182.4 Y208.015 E294.17927
G0 F9000 X184 Y207.992
G1 F1125 X184 Y152.744 E296.82535
G0 F9000 X185.6 Y154.344
G1 F1125 X185.6 Y207.788 E299.38503
G0 F9000 X187.2 Y207.404
G1 F1125 X187.2 Y155.944 E301.84969
G0 F9000 X188.8 Y157.544
G1 F1125 X188.8 Y206.821 E304.20979
G0 F9000 X190.4 Y206
G1 F1125 X190.4 Y159.144 E306.45394
G0 F9000 X192 Y160.744
G1 F1125 X192 Y204.908 E308.56916
G0 F9000 X193.6 Y203.47
G1 F1125 X193.6 Y162.344 E310.53887
G0 F9000 X195.2 Y163.944
G1 F1125 X195.2 Y201.87 E312.35532
G0 F9000 X196.8 Y200.27
G1 F1125 X196.8 Y165.544 E314.01851
G0 F9000 X198.4 Y167.144
G1 F1125 X198.4 Y198.67 E315.52843
G0 F9000 X200 Y197.07
G1 F1125 X200 Y168.744 E316.88509
G0 F9000 X201.6 Y170.344
G1 F1125 X201.6 Y195.47 E318.08849
G0 F9000 X203.2 Y193.87
G1 F1125 X203.2 Y171.944 E319.13863
G0 F9000 X204.8 Y173.68
G1 F1125 X204.8 Y192.14 E320.02276
G0 F9000 X206.4 Y189.677
G1 F1125 X206.4 Y176.132 E320.6715
G1 F2700 E315.6715
G0 F9000 X207.696 Y176.356
G0 X208.196 Y177.602
G0 X208.649 Y179.213
G0 X208.978 Y180.931
G0 X208 Y181.907
G1 F2700 E320.6715
G1 F1125 X208 Y183.871 E320.76556
G1 F2700 E315.76556
G0 F9000 X209.064 Y183.909
G0 X208.911 Y185.373
G0 X208.459 Y187.4
G0 X208.019 Y188.69
G0 X207.137 Y190.57
G0 X206.428 Y191.729
G0 X205.158 Y193.373
G0 X193.314 Y205.208
G0 X192.244 Y206.066
G0 X190.492 Y207.179
G0 X189.297 Y207.767
G0 X187.332 Y208.479
G0 X186.023 Y208.798
G0 X183.946 Y209.064
G0 X181.767 Y209.058
G0 X180.441 Y208.911
G0 X178.414 Y208.459
G0 X177.124 Y208.019
G0 X175.244 Y207.137
G0 X174.085 Y206.428
G0 X172.441 Y205.158
G0 X29.78 Y62.487
G0 X30.4 Y61.569
G1 F2700 E320.76556
G1 F1125 X30.4 Y42.62 E321.67312
G0 F9000 X28.8 Y44.933
G1 F1125 X28.8 Y59.244 E322.35854
G1 F2700 E317.35854
G0 F9000 X27.732 Y59.515
G0 X26.875 Y57.599
G0 X26.759 Y57.237
G0 X26.243 Y55.407
G0 X27.2 Y54.716
G1 F2700 E322.35854
G1 F1125 X27.2 Y49.471 E322.60974
G1 F2700 E317.60974
G0 F300 X27.2 Y49.471 Z0.474
G0 F9000 X26.089 Y49.627
G0 X25.942 Y50.953
G0 X25.936 Y53.132
G0 X26.202 Y55.209
G0 X26.521 Y56.518
G0 X27.233 Y58.483
G0 X27.821 Y59.678
G0 X28.721 Y61.096
G0 X29.63 Y62.311
G0 X30.46 Y61.645
;TIME_ELAPSED:383.405085
;LAYER:-4
;TYPE:SUPPORT
G1 F2700 E322.60974
G1 F1125 X30.578 Y61.782 E322.62959
G1 X31.222 Y62.476 E322.7335
G1 X172.52 Y203.776 E344.6662
G1 X173.032 Y204.258 E344.74338
G1 X173.14 Y204.353 E344.75917
G1 X173.747 Y204.86 E344.84598
G1 X30.169 Y61.282 E367.13242
G1 X29.907 Y60.954 E367.1785
G1 X29.803 Y60.815 E367.19755
G1 X29.31 Y60.099 E367.29297
G1 X29.193 Y59.915 E367.3169
G1 X28.75 Y59.16 E367.41298
G1 X28.673 Y59.018 E367.43071
G1 X28.264 Y58.186 E367.53247
G1 X28.214 Y58.073 E367.54603
G1 X28.106 Y57.804 E367.57784
G1 X177.191 Y206.89 E390.71918
G1 X177.528 Y207.033 E390.75936
G1 X177.694 Y207.097 E390.77888
G1 X178.535 Y207.383 E390.87638
G1 X178.698 Y207.432 E390.89506
G1 X179.307 Y207.591 E390.96415
G1 X27.407 Y55.691 E414.54235
G1 X27.28 Y55.167 E414.60153
G1 X27.248 Y55.006 E414.61955
G1 X27.1 Y54.116 E414.71857
G1 X27.078 Y53.948 E414.73717
G1 X181.041 Y207.912 E438.63567
G1 X181.696 Y207.985 E438.70801
G1 X181.819 Y207.994 E438.72155
G1 X182.565 Y208.02 E438.80348
G1 X26.975 Y52.431 E462.95437
G1 X26.968 Y52.175 E462.98248
G1 X26.967 Y52.023 E462.99916
G1 X27.002 Y51.043 E463.1068
G1 X183.953 Y207.994 E487.46903
G1 X184.758 Y207.92 E487.55775
G1 X184.936 Y207.897 E487.57745
G1 X185.221 Y207.849 E487.60917
G1 X27.144 Y49.771 E512.14626
G1 X27.302 Y48.911 E512.24223
G1 X27.333 Y48.778 E512.25722
G1 X27.38 Y48.593 E512.27817
G1 X186.402 Y207.615 E536.96187
G1 X186.862 Y207.504 E537.01381
G1 X187.026 Y207.458 E537.0325
G1 X187.504 Y207.303 E537.08765
G1 X27.693 Y47.492 E561.89382
G1 X27.901 Y46.879 E561.96487
G1 X27.966 Y46.712 E561.98454
G1 X28.073 Y46.458 E562.01479
G1 X188.54 Y206.924 E586.9227
G1 X188.888 Y206.784 E586.96387
G1 X189.005 Y206.732 E586.97793
G1 X189.512 Y206.482 E587.03997
G1 X28.515 Y45.486 E612.03015
G1 X28.802 Y44.927 E612.09912
G1 X28.87 Y44.81 E612.11397
G1 X29.014 Y44.571 E612.1446
G1 X190.426 Y205.983 E637.19927
G1 X190.731 Y205.805 E637.23803
G1 X190.915 Y205.688 E637.26197
G1 X191.288 Y205.43 E637.31174
G1 X29.566 Y43.708 E662.41454
G1 X29.955 Y43.166 E662.48776
G1 X30.068 Y43.018 E662.5082
G1 X30.168 Y42.896 E662.52551
G1 X192.098 Y204.826 E687.66059
G1 X192.461 Y204.536 E687.71159
G1 X192.61 Y204.409 E687.73308
G1 X192.861 Y204.174 E687.77082
G1 X30.819 Y42.133 E712.9232
G1 X31.223 Y41.706 E712.98772
