;FLAVOR:Marlin
;TIME:7874
;Filament used: 6.68268m
;Layer height: 0.22
;MINX:76.836
;MINY:76.837
;MINZ:0.144
;MAXX:158.151
;MAXY:158.163
;MAXZ:20.984
;Generated with Cura_SteamEngine master
M140 S60
M105
M190 S60
M104 S200
M105
M109 S200
M82 ;absolute extrusion mode
; Ender 3 Custom Start G-code
G92 E0 ; Reset Extruder
G28 ; Home all axes
G1 Z2.0 F3000 ; Move Z Axis up little to prevent scratching of Heat Bed
G1 X0.1 Y20 Z0.3 F5000.0 ; Move to start position
G1 X0.1 Y200.0 Z0.3 F1500.0 E15 ; Draw the first line
G1 X0.4 Y200.0 Z0.3 F5000.0 ; Move to side a little
G1 X0.4 Y20 Z0.3 F1500.0 E30 ; Draw the second line
G92 E0 ; Reset Extruder
G1 Z2.0 F3000 ; Move Z Axis up little to prevent scratching of Heat Bed
G1 X5 Y20 Z0.3 F5000.0 ; Move over to prevent blob squish
G92 E0
G92 E0
G1 F2700 E-5
;LAYER_COUNT:91
;LAYER:-5
M107
G0 F9000 X89.494 Y89.501 Z0.144
;TYPE:SUPPORT-INTERFACE
G1 F2700 E0
G1 F1125 X90.023 Y88.997 E0.03499
G1 X91.794 Y87.392 E0.14947
G1 X92.849 Y86.519 E0.21505
G1 X94.826 Y85.051 E0.33299
G1 X94.957 Y84.957 E0.34071
G1 X95.83 Y84.363 E0.39128
G1 X96.11 Y84.188 E0.4071
G1 X98.238 Y82.913 E0.52591
G1 X98.597 Y82.706 E0.54576
G1 X99.443 Y82.27 E0.59134
G1 X101.689 Y81.206 E0.71037
G1 X101.975 Y81.075 E0.72544
G1 X102.069 Y81.035 E0.73033
G1 X102.955 Y80.68 E0.77605
G1 X105.278 Y79.847 E0.89424
G1 X106.035 Y79.596 E0.93244
G1 X106.71 Y79.41 E0.96597
G1 X109.076 Y78.818 E1.08279
G1 X109.772 Y78.662 E1.11695
G1 X110.488 Y78.538 E1.15175
G1 X112.852 Y78.186 E1.26622
G1 X113.259 Y78.136 E1.28586
G1 X113.51 Y78.103 E1.29799
G1 X113.646 Y78.089 E1.30453
G1 X114.241 Y78.044 E1.33311
G1 X116.745 Y77.92 E1.45319
G1 X117.513 Y77.901 E1.48998
G1 X118.255 Y77.92 E1.52553
G1 X120.6 Y78.034 E1.63798
G1 X120.759 Y78.044 E1.64561
G1 X121.401 Y78.093 E1.67645
G1 X121.741 Y78.134 E1.69285
G1 X122.148 Y78.186 E1.7125
G1 X124.526 Y78.54 E1.82765
G1 X125.242 Y78.664 E1.86245
G1 X125.924 Y78.818 E1.89594
G1 X128.29 Y79.41 E2.01275
G1 X128.965 Y79.596 E2.04628
G1 X129.722 Y79.847 E2.08448
G1 X132.045 Y80.68 E2.20268
G1 X132.931 Y81.035 E2.24839
G1 X133.016 Y81.071 E2.25281
G1 X133.306 Y81.204 E2.26809
G1 X135.551 Y82.267 E2.38706
G1 X136.403 Y82.706 E2.43296
G1 X136.827 Y82.952 E2.45644
G1 X138.887 Y84.186 E2.57145
G1 X139.171 Y84.362 E2.58745
G1 X140.043 Y84.958 E2.63804
G1 X140.174 Y85.051 E2.64574
G1 X142.151 Y86.519 E2.76367
G1 X143.197 Y87.384 E2.82868
G1 X144.97 Y88.991 E2.94329
G1 X145.499 Y89.494 E2.97825
G1 X146.009 Y90.03 E3.01369
G1 X147.608 Y91.794 E3.12772
G1 X148.481 Y92.849 E3.1933
G1 X149.949 Y94.826 E3.31124
G1 X150.043 Y94.957 E3.31896
G1 X150.637 Y95.83 E3.36953
G1 X150.791 Y96.075 E3.38339
G1 X152.069 Y98.208 E3.50249
G1 X152.294 Y98.597 E3.52401
G1 X152.72 Y99.423 E3.56852
G1 X152.762 Y99.508 E3.57306
G1 X153.795 Y101.691 E3.68873
G1 X153.925 Y101.975 E3.70369
G1 X153.97 Y102.082 E3.70925
G1 X154.317 Y102.947 E3.75389
G1 X154.38 Y103.114 E3.76244
G1 X155.184 Y105.364 E3.87687
G1 X155.404 Y106.035 E3.91069
G1 X155.587 Y106.697 E3.94359
G1 X156.18 Y109.067 E4.0606
G1 X156.335 Y109.755 E4.09438
G1 X156.461 Y110.481 E4.12967
G1 X156.814 Y112.852 E4.24448
G1 X156.864 Y113.259 E4.26412
G1 X156.903 Y113.556 E4.27846
G1 X156.953 Y114.21 E4.30988
G1 X156.966 Y114.414 E4.31967
G1 X157.082 Y116.769 E4.4326
G1 X157.1 Y117.495 E4.46738
G1 X157.082 Y118.221 E4.50216
G1 X156.967 Y120.586 E4.61556
G1 X156.908 Y121.396 E4.65446
G1 X156.866 Y121.741 E4.67111
G1 X156.814 Y122.148 E4.69076
G1 X156.459 Y124.531 E4.80615
G1 X156.336 Y125.242 E4.84071
G1 X156.182 Y125.924 E4.8742
G1 X155.59 Y128.29 E4.99101
G1 X155.408 Y128.952 E5.02389
G1 X155.167 Y129.686 E5.06089
G1 X154.351 Y131.968 E5.17697
G1 X153.942 Y132.987 E5.22955
G1 X153.797 Y133.304 E5.24625
G1 X152.733 Y135.551 E5.36533
G1 X152.294 Y136.403 E5.41123
G1 X152.069 Y136.792 E5.43275
G1 X150.814 Y138.887 E5.54972
G1 X150.638 Y139.171 E5.56572
G1 X150.042 Y140.043 E5.61631
G1 X149.953 Y140.168 E5.62366
G1 X148.481 Y142.151 E5.74194
G1 X147.616 Y143.197 E5.80695
G1 X146.009 Y144.97 E5.92155
G1 X145.525 Y145.479 E5.95519
G1 X144.977 Y146.003 E5.99151
G1 X143.206 Y147.608 E6.10598
G1 X142.151 Y148.481 E6.17157
G1 X140.174 Y149.949 E6.2895
G1 X140.043 Y150.043 E6.29722
G1 X139.171 Y150.637 E6.34776
G1 X138.89 Y150.812 E6.36361
G1 X136.762 Y152.087 E6.48243
G1 X136.402 Y152.295 E6.50234
G1 X135.557 Y152.73 E6.54786
G1 X133.311 Y153.794 E6.66689
G1 X133.028 Y153.923 E6.68179
G1 X132.93 Y153.966 E6.68691
G1 X132.045 Y154.32 E6.73256
G1 X129.722 Y155.153 E6.85076
G1 X128.965 Y155.404 E6.88896
G1 X128.29 Y155.59 E6.92249
G1 X125.923 Y156.182 E7.03935
G1 X125.227 Y156.338 E7.07351
G1 X124.512 Y156.462 E7.10827
G1 X122.148 Y156.814 E7.22274
G1 X121.741 Y156.864 E7.24238
G1 X121.49 Y156.897 E7.2545
G1 X121.354 Y156.911 E7.26105
G1 X120.759 Y156.956 E7.28963
G1 X118.255 Y157.08 E7.4097
G1 X117.487 Y157.099 E7.4465
G1 X116.745 Y157.08 E7.48205
G1 X114.4 Y156.966 E7.59449
G1 X114.241 Y156.956 E7.60212
G1 X113.599 Y156.907 E7.63296
G1 X113.259 Y156.866 E7.64936
G1 X112.852 Y156.814 E7.66901
G1 X110.474 Y156.46 E7.78416
G1 X109.745 Y156.333 E7.8196
G1 X109.077 Y156.182 E7.8524
G1 X106.71 Y155.59 E7.96926
G1 X106.035 Y155.404 E8.0028
G1 X105.278 Y155.153 E8.04099
G1 X102.955 Y154.32 E8.15919
G1 X102.07 Y153.965 E8.20486
G1 X101.972 Y153.923 E8.20997
G1 X101.662 Y153.781 E8.2263
G1 X99.443 Y152.73 E8.34389
G1 X98.598 Y152.295 E8.38941
G1 X98.17 Y152.046 E8.41313
G1 X96.11 Y150.812 E8.52814
G1 X95.829 Y150.637 E8.54399
G1 X94.957 Y150.042 E8.59455
G1 X94.826 Y149.949 E8.60225
G1 X92.849 Y148.481 E8.72018
G1 X91.794 Y147.608 E8.78577
G1 X89.995 Y145.976 E8.9021
G1 X89.475 Y145.479 E8.93656
G1 X88.985 Y144.964 E8.9706
G1 X87.384 Y143.197 E9.0848
G1 X86.519 Y142.151 E9.14981
G1 X85.047 Y140.168 E9.26809
G1 X84.957 Y140.043 E9.27547
G1 X84.363 Y139.17 E9.32604
G1 X84.186 Y138.887 E9.34203
G1 X82.916 Y136.765 E9.46047
G1 X82.699 Y136.39 E9.48122
G1 X82.267 Y135.551 E9.52642
G1 X81.203 Y133.304 E9.6455
G1 X81.045 Y132.957 E9.66376
G1 X80.645 Y131.956 E9.71539
G1 X79.821 Y129.651 E9.83263
G1 X79.592 Y128.952 E9.86785
G1 X79.41 Y128.29 E9.90074
G1 X78.818 Y125.924 E10.01755
G1 X78.665 Y125.242 E10.05103
G1 X78.541 Y124.531 E10.08559
G1 X78.186 Y122.148 E10.20098
G1 X78.136 Y121.741 E10.22062
G1 X78.093 Y121.396 E10.23728
G1 X78.047 Y120.79 E10.26638
G1 X78.034 Y120.586 E10.27617
G1 X77.918 Y118.218 E10.38972
G1 X77.9 Y117.505 E10.42388
G1 X77.918 Y116.779 E10.45867
G1 X78.033 Y114.414 E10.57207
G1 X78.093 Y113.595 E10.6114
G1 X78.134 Y113.259 E10.62761
G1 X78.186 Y112.852 E10.64727
G1 X78.539 Y110.481 E10.76207
G1 X78.664 Y109.758 E10.79722
G1 X78.818 Y109.076 E10.8307
G1 X79.411 Y106.706 E10.94771
G1 X79.593 Y106.044 E10.98059
G1 X79.855 Y105.249 E11.02069
G1 X80.617 Y103.121 E11.12894
G1 X80.68 Y102.954 E11.13749
G1 X81.07 Y101.986 E11.18747
G1 X81.203 Y101.696 E11.20275
G1 X82.235 Y99.514 E11.31836
G1 X82.66 Y98.684 E11.36302
G1 X82.706 Y98.597 E11.36773
G1 X82.931 Y98.208 E11.38926
G1 X84.186 Y96.113 E11.50622
G1 X84.362 Y95.829 E11.52223
G1 X84.958 Y94.957 E11.57281
G1 X85.051 Y94.826 E11.58051
G1 X86.519 Y92.849 E11.69844
G1 X87.384 Y91.803 E11.76345
G1 X88.991 Y90.03 E11.87806
G1 X89.494 Y89.501 E11.91302
G0 F9000 X89.6 Y89.4
G1 F1125 X89.6 Y145.598 E14.6046
G0 F9000 X91.2 Y147.069
G1 F1125 X91.2 Y87.93 E17.43704
G0 F9000 X92.8 Y86.559
G1 F1125 X92.8 Y148.44 E20.40081
G0 F9000 X94.4 Y149.632
G1 F1125 X94.4 Y85.367 E23.47875
G0 F9000 X96 Y84.256
G1 F1125 X96 Y150.743 E26.66312
G0 F9000 X97.6 Y151.704
G1 F1125 X97.6 Y83.295 E29.93954
G0 F9000 X99.2 Y82.395
G1 F1125 X99.2 Y152.604 E33.30217
G0 F9000 X100.8 Y153.372
G1 F1125 X100.8 Y81.627 E36.73837
G0 F9000 X102.4 Y80.902
G1 F1125 X102.4 Y154.097 E40.24401
G0 F9000 X104 Y154.694
G1 F1125 X104 Y80.305 E43.80685
G0 F9000 X105.6 Y79.74
G1 F1125 X105.6 Y155.259 E47.4238
G0 F9000 X107.2 Y155.712
G1 F1125 X107.2 Y79.287 E51.08414
G0 F9000 X108.8 Y78.887
G1 F1125 X108.8 Y156.112 E54.7828
G0 F9000 X110.4 Y156.447
G1 F1125 X110.4 Y78.553 E58.5135
G0 F9000 X112 Y78.312
G1 F1125 X112 Y156.687 E62.26724
G0 F9000 X113.6 Y156.907
G1 F1125 X113.6 Y78.093 E66.04201
G0 F9000 X115.2 Y77.996
G1 F1125 X115.2 Y157.004 E69.82606
G0 F9000 X116.8 Y157.081
G1 F1125 X116.8 Y77.918 E73.61754
G0 F9000 X118.4 Y77.928
G1 F1125 X118.4 Y157.073 E77.40816
G0 F9000 X120 Y156.994
G1 F1125 X120 Y78.005 E81.19131
G0 F9000 X121.6 Y78.117
G1 F1125 X121.6 Y156.883 E84.96377
G0 F9000 X123.2 Y156.658
G1 F1125 X123.2 Y78.343 E88.71464
G0 F9000 X124.8 Y78.588
G1 F1125 X124.8 Y156.413 E92.44203
G0 F9000 X126.4 Y156.063
G1 F1125 X126.4 Y78.938 E96.1359
G0 F9000 X128 Y79.338
G1 F1125 X128 Y155.663 E99.79146
G0 F9000 X129.6 Y155.194
G1 F1125 X129.6 Y79.807 E103.40209
G0 F9000 X131.2 Y80.377
G1 F1125 X131.2 Y154.624 E106.95812
G0 F9000 X132.8 Y154.018
G1 F1125 X132.8 Y80.983 E110.4561
G0 F9000 X134.4 Y81.723
G1 F1125 X134.4 Y153.279 E113.88325
G0 F9000 X136 Y152.502
G1 F1125 X136 Y82.499 E117.23601
G0 F9000 X137.6 Y83.416
G1 F1125 X137.6 Y151.585 E120.50094
G0 F9000 X139.2 Y150.618
G1 F1125 X139.2 Y84.382 E123.67329
G0 F9000 X140.8 Y85.516
G1 F1125 X140.8 Y149.485 E126.73705
G0 F9000 X142.4 Y148.275
G1 F1125 X142.4 Y86.725 E129.68497
G0 F9000 X144 Y88.112
G1 F1125 X144 Y146.889 E132.50007
G0 F9000 X145.6 Y145.401
G1 F1125 X145.6 Y89.601 E135.17259
G0 F9000 X147.2 Y91.344
G1 F1125 X147.2 Y143.656 E137.67805
G0 F9000 X148.8 Y141.722
G1 F1125 X148.8 Y93.279 E139.99821
G0 F9000 X150.4 Y95.482
G1 F1125 X150.4 Y139.52 E142.10739
G0 F9000 X152 Y136.908
G1 F1125 X152 Y98.093 E143.96642
G0 F9000 X153.6 Y101.279
G1 F1125 X153.6 Y133.721 E145.52021
G0 F9000 X155.2 Y129.586
G1 F1125 X155.2 Y105.413 E146.67797
G1 F2700 E141.67797
G0 F9000 X156.42 Y105.72
G0 X157.382 Y109.564
G0 X157.784 Y112.204
G0 X156.8 Y112.758
G1 F2700 E146.67797
G1 F1125 X156.8 Y122.242 E147.1322
G1 F2700 E142.1322
G0 F9000 X157.784 Y122.796
G0 X157.377 Y125.462
G0 X156.422 Y129.276
G0 X154.915 Y133.42
G0 X153.23 Y136.912
G0 X151.523 Y139.762
G0 X149.307 Y142.821
G0 X148.411 Y143.905
G0 X146.246 Y146.264
G0 X143.837 Y148.468
G0 X142.691 Y149.407
G0 X139.648 Y151.596
G0 X136.818 Y153.279
G0 X133.342 Y154.947
G0 X129.217 Y156.439
G0 X125.412 Y157.386
G0 X122.795 Y157.797
G0 X120.843 Y158.037
G0 X117.45 Y158.163
G0 X114.157 Y158.037
G0 X110.308 Y157.512
G0 X108.825 Y157.216
G0 X105.708 Y156.418
G0 X101.545 Y154.899
G0 X98.088 Y153.23
G0 X95.239 Y151.523
G0 X92.179 Y149.307
G0 X91.095 Y148.411
G0 X88.944 Y146.434
G0 X87.212 Y144.591
G0 X88 Y143.876
G1 F2700 E147.1322
G1 F1125 X88 Y91.123 E149.65878
G0 F9000 X86.4 Y93.009
G1 F1125 X86.4 Y141.99 E152.00471
G0 F9000 X84.8 Y139.812
G1 F1125 X84.8 Y95.188 E154.14196
G0 F9000 X83.2 Y97.758
G1 F1125 X83.2 Y137.239 E156.03288
G0 F9000 X81.6 Y134.142
G1 F1125 X81.6 Y100.856 E157.6271
G0 F9000 X80 Y104.844
G1 F1125 X80 Y130.151 E158.83917
G1 F2700 E153.83917
G0 F9000 X78.828 Y130.037
G0 X78.381 Y128.565
G0 X77.755 Y125.982
G0 X77.348 Y123.741
G0 X78.4 Y123.584
G1 F2700 E158.83917
G1 F1125 X78.4 Y111.414 E159.42205
G1 F2700 E154.42205
G0 F300 X78.4 Y111.414 Z0.474
G0 F9000 X77.347 Y111.259
G0 X76.963 Y114.157
G0 X76.836 Y117.513
G0 X76.963 Y120.843
G0 X77.485 Y124.671
G0 X77.784 Y126.175
G0 X78.578 Y129.276
G0 X80.085 Y133.42
G0 X81.77 Y136.912
G0 X82.737 Y138.527
G0 X84.087 Y140.654
G0 X85.144 Y140.299
;TIME_ELAPSED:191.861741
;LAYER:-4
;TYPE:SUPPORT
G1 F2700 E159.42205
G1 F1125 X94.699 Y149.854 E160.90519
G1 X92.849 Y148.48 E161.15813
G1 X91.793 Y147.607 E161.30851
G1 X89.994 Y145.975 E161.57511
G1 X89.475 Y145.478 E161.65398
G1 X88.984 Y144.963 E161.73208
G1 X87.384 Y143.196 E161.99371
G1 X86.519 Y142.15 E162.14269
G1 F2700 E157.14269
G0 F9000 X85.699 Y142.827
G0 X86.589 Y143.905
G0 X88.754 Y146.264
G0 X91.163 Y148.468
G0 X91.487 Y148.734
G0 X94.065 Y150.71
G0 X94.699 Y149.854
G1 F2700 E162.14269
G1 F1125 X94.826 Y149.948 E162.16003
G1 X94.957 Y150.04 E162.1776
G1 X95.828 Y150.636 E162.29344
G1 X95.906 Y150.687 E162.30367
G1 X96.109 Y150.811 E162.32978
G1 X98.169 Y152.045 E162.59335
G1 X98.493 Y152.233 E162.63446
G1 X82.766 Y136.506 E165.07564
G1 X82.698 Y136.389 E165.09049
G1 X82.266 Y135.55 E165.19407
G1 X81.406 Y133.732 E165.41481
G1 X101.266 Y153.592 E168.49751
G1 X101.662 Y153.78 E168.54563
G1 X101.972 Y153.922 E168.58305
G1 X102.07 Y153.964 E168.59475
G1 X102.954 Y154.318 E168.69927
G1 X103.659 Y154.571 E168.78148
G1 X80.422 Y131.334 E172.38837
G1 X79.821 Y129.65 E172.58463
G1 X79.659 Y129.156 E172.64169
G1 X105.841 Y155.339 E176.70578
G1 X106.034 Y155.403 E176.7281
G1 X106.71 Y155.589 E176.80506
G1 X107.771 Y155.854 E176.92509
G1 X79.144 Y127.227 E181.36862
G1 X78.818 Y125.922 E181.51626
G1 X78.692 Y125.361 E181.57937
G1 X109.639 Y156.308 E186.38302
G1 X109.745 Y156.332 E186.39495
G1 X110.473 Y156.459 E186.47606
G1 X111.331 Y156.586 E186.57126
G1 X78.412 Y123.667 E191.68101
G1 X78.186 Y122.147 E191.84968
G1 X78.169 Y122.009 E191.86494
G1 X112.99 Y156.83 E197.26992
G1 X113.259 Y156.865 E197.29969
G1 X113.598 Y156.906 E197.33717
G1 X114.24 Y156.955 E197.40784
G1 X114.399 Y156.964 E197.42532
G1 X114.545 Y156.972 E197.44137
G1 X78.025 Y120.452 E203.11007
G1 X77.954 Y118.966 E203.27336
G1 X116.031 Y157.044 E209.18382
G1 X116.744 Y157.079 E209.26217
G1 X117.487 Y157.097 E209.34375
G1 X117.499 Y157.097 E209.34506
G1 X77.9 Y117.498 E215.4917
G1 X77.918 Y116.777 E215.57086
G1 X77.949 Y116.133 E215.64162
G1 X118.865 Y157.049 E221.99268
G1 X120.213 Y156.982 E222.14082
G1 X78.014 Y114.783 E228.69103
G1 X78.032 Y114.413 E228.73168
G1 X78.092 Y113.593 E228.82193
G1 X78.108 Y113.463 E228.8363
G1 X121.534 Y156.89 E235.57705
G1 X121.741 Y156.863 E235.59996
G1 X122.147 Y156.812 E235.64487
G1 X122.777 Y156.718 E235.71478
G1 X78.279 Y112.22 E242.62185
G1 X78.462 Y110.989 E242.75844
G1 X124.008 Y156.535 E249.82818
G1 X124.511 Y156.461 E249.88398
G1 X125.224 Y156.337 E249.96342
G1 X78.66 Y109.773 E257.19117
G1 X78.664 Y109.757 E257.19298
G1 X78.818 Y109.075 E257.26972
G1 X78.93 Y108.628 E257.3203
G1 X126.37 Y156.069 E264.6841
G1 X127.501 Y155.786 E264.81206
G1 X79.212 Y107.497 E272.30757
G1 X79.41 Y106.705 E272.39718
G1 X79.502 Y106.372 E272.4351
G1 X128.626 Y155.496 E280.06022
G1 X128.964 Y155.403 E280.09869
G1 X129.702 Y155.158 E280.18404
G1 X79.839 Y105.295 E287.92387
G1 X79.854 Y105.248 E287.92929
G1 X80.211 Y104.252 E288.04542
G1 X130.744 Y154.785 E295.88924
G1 X131.784 Y154.412 E296.01051
G1 X80.584 Y103.211 E303.95795
G1 X80.617 Y103.12 E303.96857
G1 X80.679 Y102.953 E303.98813
G1 X80.984 Y102.197 E304.0776
G1 X132.802 Y154.015 E312.12089
G1 X132.93 Y153.965 E312.13597
G1 X133.027 Y153.921 E312.14766
G1 X133.31 Y153.792 E312.1818
G1 X133.773 Y153.572 E312.23806
G1 X81.425 Y101.224 E320.36362
G1 X81.879 Y100.264 E320.48017
G1 X134.733 Y153.118 E328.68427
G1 X135.556 Y152.729 E328.78418
G1 X135.689 Y152.66 E328.80063
G1 X82.338 Y99.308 E337.08195
G1 X82.66 Y98.683 E337.15912
G1 X82.706 Y98.596 E337.16992
G1 X82.827 Y98.384 E337.19671
G1 X136.614 Y152.17 E345.54555
G1 X136.762 Y152.086 E345.56423
G1 X137.501 Y151.643 E345.6588
G1 X83.355 Y97.497 E354.06345
G1 X83.885 Y96.613 E354.17657
G1 X138.385 Y151.113 E362.63617
G1 X138.889 Y150.811 E362.70066
G1 X139.093 Y150.687 E362.72686
G1 X139.171 Y150.636 E362.73709
G1 X139.261 Y150.574 E362.74908
G1 X84.423 Y95.737 E371.26106
G1 X84.958 Y94.956 E371.36497
G1 X84.999 Y94.898 E371.37276
G1 X140.1 Y149.999 E379.92564
G1 X140.174 Y149.947 E379.93557
G1 X140.912 Y149.398 E380.03653
G1 X85.6 Y94.085 E388.62224
G1 X86.202 Y93.273 E388.73318
G1 X141.724 Y148.795 E397.35141
G1 X142.151 Y148.479 E397.40972
G1 X142.518 Y148.174 E397.46209
G1 X86.822 Y92.479 E406.10725
G1 X87.384 Y91.802 E406.20383
G1 X87.466 Y91.709 E406.21744
G1 X143.288 Y147.531 E414.88223
G1 X144.03 Y146.859 E414.99211
G1 X88.139 Y90.967 E423.66769
G1 X88.811 Y90.226 E423.77749
G1 X144.772 Y146.186 E432.46378
G1 X144.976 Y146.001 E432.49401
G1 X145.5 Y145.5 E432.57358
G1 X89.497 Y89.497 E441.26647
G1 X90.022 Y88.997 E441.34605
G1 X90.226 Y88.812 E441.37627
G1 X146.187 Y144.773 E450.06264
G1 X146.859 Y144.031 E450.17252
G1 X90.968 Y88.14 E458.84803
G1 X91.71 Y87.467 E458.95798
